X:1
T:Lawland Lads wi Highland Kilts, The
M:C|
L:1/8
R:Strathspey
B:Robert Ross – Choice Collection of Scots Reels or Country Dances
B:& Strathspeys (Edinburgh, 1780, p. 18)
Z:AK/Fiddler’s Companion
K:D
F|D/D/D (A>B) A<FE>F|D/D/D A>B A<FA>(B|F<A)A>(B A<F)E>F|
D/D/D (A>B) A>Bd>e|(f<d)g>f e<EE>F|D/D/D (A>B) TA<FD:|
|:g|(f<d)d>f g>fe>f|(f<d)d>f a>fd>g|(f<d)d>f g>fe>g|
a>gTf>e d>efd|(e/f/g) (f/g/a) e<EE>F|D/D/D A>B TA>FD:|]

